; generated by PrusaSlicer 2.8.1+linux-x64-GTK3 on 2024-10-18 at 19:34:46 UTC


;
;

;
;

;
;

;
;

;
;
; 

; external perimeters extrusion width = 0.45mm
; perimeters extrusion width = 0.45mm
; infill extrusion width = 0.45mm
; solid infill extrusion width = 0.45mm
; top infill extrusion width = 0.40mm
; first layer extrusion width = 0.50mm

; external perimeters extrusion width = 0.45mm
; perimeters extrusion width = 0.45mm
; infill extrusion width = 0.45mm
; solid infill extrusion width = 0.45mm
; top infill extrusion width = 0.40mm
; first layer extrusion width = 0.50mm

M73 P0 R90
M73 Q0 S91
M201 X7000 Y7000 Z200 E2500 ; sets maximum accelerations, mm/sec^2
M203 X400 Y400 Z12 E100 ; sets maximum feedrates, mm / sec
M204 P4000 R1200 T5000 ; sets acceleration (P, T) and retract acceleration (R), mm/sec^2
M205 X8.00 Y8.00 Z2.00 E10.00 ; sets the jerk limits, mm/sec
M205 S0 T0 ; sets the minimum extruding and travel feed rate, mm/sec

M486 S0
M486 ATest1
M486 S-1

;TYPE:Custom
M17 ; enable steppers
M862.3 P "XL" ; printer model check
M862.5 P2 ; g-code level check
M862.6 P"Input shaper" ; FW feature check
M115 U6.1.3+7898
G90 ; use absolute coordinates
M83 ; extruder relative mode
; set print area
M555 X28.8375 Y37.75 W27.825 H10
; inform about nozzle diameter
M862.1 T0 P0.4 A0 F0

M862.1 T2 P0.4 A0 F0



; turn off unused heaters

M104 T1 S0

M104 T3 S0
M104 T4 S0

M217 Z2 ; set toolchange z hop to 2mm, or zhop variable from slicer if higher
; set bed and extruder temp for MBL
M140 S60 ; set bed temp
G0 Z5 ; add Z clearance
M109 T0 S170 ; wait for temp

; Home XY
G28 XY
; try picking tools used in print
G1 F24000


T2 S1 L0 D0


; select tool that will be used to home & MBL
T0 S1 L0 D0
; home Z with MBL tool
M84 E ; turn off E motor
G28 Z
G0 Z5 ; add Z clearance

M104 T0 S70 ; set idle temp
M190 S60 ; wait for bed temp

G29 G ; absorb heat

M109 T0 S170 ; wait for temp

; move to the nozzle cleanup area
G1 X60.8375 Y30.75 Z5 F24000
M302 S160 ; lower cold extrusion limit to 160C
G1 E-2 F2400 ; retraction for nozzle cleanup
; nozzle cleanup
M84 E ; turn off E motor
G29 P9 X28.8375 Y30.75 W32 H7
G0 Z5 F480 ; move away in Z
M107 ; turn off the fan
; MBL
M84 E ; turn off E motor
G29 P1 ; invalidate mbl & probe print area
G29 P1 X30 Y0 W300 H20 C ; probe near purge place
G29 P3.2 ; interpolate mbl probes
G29 P3.13 ; extrapolate mbl outside probe area
G29 A ; activate mbl
G1 Z10 F720 ; move away in Z
G1 F24000
P0 S1 L1 D0; park the tool
; set extruder temp
M104 T0 S230

M104 T2 S210





;
; purge third tool
;
G1 F24000
P0 S1 L2 D0; park the tool
M109 T2 S210
T2 S1 L0 D0; pick the tool
G92 E0 ; reset extruder position

M104.1 T0 P12 Q13 S225
G0 X210 Y-7 Z10 F24000 ; move close to the sheet's edge
G0 E30 X220 Z0.2 F170 ; purge while moving towards the sheet
M73 P0 R89
G0 X250 E9 F800 ; continue purging and wipe the nozzle
M73 Q0 S90
G0 X253 Z0.05 F8000 ; wipe, move close to the bed
G0 X256 Z0.2 F8000 ; wipe, move quickly away from the bed
G1 E-20 F2400 ; retract

G92 E0 ; reset extruder position

M104 S70 T2



;
; purge initial tool
;
G1 F24000
P0 S1 L2 D0; park the tool
M109 T0 S230
T0 S1 L0 D0; pick the tool
G92 E0 ; reset extruder position

G0 X30 Y-7 Z10 F24000 ; move close to the sheet's edge
G0 E30 X40 Z0.2 F170 ; purge while moving towards the sheet
G0 X70 E9 F800 ; continue purging and wipe the nozzle
G0 X73 Z0.05 F8000 ; wipe, move close to the bed
G0 X76 Z0.2 F8000 ; wipe, move quickly away from the bed
G1 E-0.8 F2400 ; retract

G92 E0 ; reset extruder position
G21 ; set units to millimeters
G90 ; use absolute coordinates
M83 ; use relative distances for extrusion
; Change Tool-1 -> Tool0 (layer -1)
G1 F21000
T0 S1 L0 D0
M900 K0.05 ; Filament gcode


M572 S0.036 ; Filament gcode


M142 S36 ; set heatbreak target temp
M109 S230 T0 ; set temperature and wait for it to be reached
M107
;LAYER_CHANGE
;Z:0.2
;HEIGHT:0.2
M486 S0
G1 Z.8 F720
G1 X55.298 Y39.114 F24000
G1 Z.2 F720
G1 E.8 F1500
M204 P500
;TYPE:Perimeter
;WIDTH:0.499999
G1 F2400
G1 X55.298 Y42.75 E.13819
G1 X55.298 Y46.386 E.13819
G1 X30.202 Y46.386 E.95381
G1 X30.202 Y39.114 E.27638
G1 X55.238 Y39.114 E.95153
M204 P2500
M204 T5000
G1 X55.238 Y39.114 F24000
G1 X55.755 Y38.657
M204 P500
G1 F2400
G1 X55.755 Y42.75 E.15556
G1 X55.755 Y46.843 E.15556
G1 X29.745 Y46.843 E.98854
G1 X29.745 Y38.657 E.31112
G1 X55.695 Y38.657 E.98626
M204 P2500
G1 X55.695 Y38.657 F24000
G1 X56.213 Y38.2
M204 P500
;TYPE:External perimeter
G1 F2400
G1 X56.213 Y42.75 E.17293
G1 X56.213 Y47.3 E.17293
G1 X29.288 Y47.3 E1.02332
G1 X29.288 Y38.2 E.34586
G1 X56.153 Y38.2 E1.02104
M204 P2500
G1 E-.64 F2100
;WIPE_START
G1 F19200
G1 X56.213 Y38.2 E-.00623
G1 X56.213 Y39.68 E-.15377
;WIPE_END
G1 X55.116 Y40.223 Z.221 F24000
G1 Z.2 F720
G1 E.8 F1500
M204 P500
;TYPE:Solid infill
;WIDTH:0.500785
G1 F2400
G1 X54.396 Y39.503 E.03877
G1 X53.748 Y39.503 E.02467
G1 X54.91 Y40.664 E.06254
G1 X54.91 Y41.312 E.02467
G1 X53.101 Y39.503 E.0974
G1 X52.453 Y39.503 E.02467
G1 X54.91 Y41.96 E.13229
G1 X54.91 Y42.607 E.02463
G1 X51.805 Y39.503 E.16715
G1 X51.158 Y39.503 E.02463
G1 X54.91 Y43.255 E.20201
G1 X54.91 Y43.902 E.02463
G1 X50.51 Y39.503 E.23688
G1 X49.863 Y39.503 E.02463
G1 X54.91 Y44.55 E.27174
G1 X54.91 Y45.197 E.02463
G1 X49.215 Y39.503 E.3066
G1 X48.568 Y39.503 E.02463
G1 X54.91 Y45.845 E.34146
G1 X54.91 Y45.997 E.00579
G1 X54.415 Y45.997 E.01885
G1 X47.92 Y39.503 E.34967
G1 X47.273 Y39.503 E.02463
G1 X53.767 Y45.997 E.34965
G1 X53.12 Y45.997 E.02463
G1 X46.625 Y39.503 E.34967
G1 X45.978 Y39.503 E.02463
G1 X52.472 Y45.997 E.34965
G1 X51.825 Y45.997 E.02463
G1 X45.33 Y39.503 E.34967
G1 X44.683 Y39.503 E.02463
G1 X51.177 Y45.997 E.34965
G1 X50.53 Y45.997 E.02463
G1 X44.035 Y39.503 E.34967
G1 X43.388 Y39.503 E.02463
G1 X49.882 Y45.997 E.34965
G1 X49.235 Y45.997 E.02463
G1 X42.74 Y39.503 E.34967
G1 X42.093 Y39.503 E.02463
G1 X48.587 Y45.997 E.34965
G1 X47.94 Y45.997 E.02463
G1 X41.445 Y39.503 E.34967
G1 X40.798 Y39.503 E.02463
G1 X47.292 Y45.997 E.34965
G1 X46.645 Y45.997 E.02463
G1 X40.15 Y39.503 E.34967
G1 X39.503 Y39.503 E.02463
G1 X45.997 Y45.997 E.34965
G1 X45.35 Y45.997 E.02463
G1 X38.855 Y39.503 E.34967
G1 X38.208 Y39.503 E.02463
G1 X44.702 Y45.997 E.34965
G1 X44.055 Y45.997 E.02463
G1 X37.56 Y39.503 E.34967
G1 X36.913 Y39.503 E.02463
G1 X43.407 Y45.997 E.34965
G1 X42.76 Y45.997 E.02463
G1 X36.265 Y39.503 E.34967
G1 X35.618 Y39.503 E.02463
G1 X42.112 Y45.997 E.34965
G1 X41.465 Y45.997 E.02463
G1 X34.97 Y39.503 E.34967
G1 X34.322 Y39.503 E.02467
G1 X40.817 Y45.997 E.34967
G1 X40.17 Y45.997 E.02463
G1 X33.675 Y39.503 E.34967
G1 X33.027 Y39.503 E.02467
G1 X39.522 Y45.997 E.34967
G1 X38.875 Y45.997 E.02463
G1 X32.38 Y39.503 E.34967
G1 X31.732 Y39.503 E.02467
G1 X38.227 Y45.997 E.34967
G1 X37.58 Y45.997 E.02463
G1 X31.085 Y39.503 E.34967
G1 X30.59 Y39.503 E.01885
G1 X30.59 Y39.655 E.00579
G1 X36.932 Y45.997 E.34146
G1 X36.284 Y45.997 E.02467
G1 X30.59 Y40.303 E.30657
G1 X30.59 Y40.951 E.02467
G1 X35.637 Y45.997 E.27171
G1 X34.989 Y45.997 E.02467
G1 X30.59 Y41.598 E.23685
G1 X30.59 Y42.246 E.02467
G1 X34.342 Y45.997 E.20199
G1 X33.694 Y45.997 E.02467
G1 X30.59 Y42.893 E.16712
G1 X30.59 Y43.541 E.02467
G1 X33.047 Y45.997 E.13226
G1 X32.399 Y45.997 E.02467
G1 X30.59 Y44.188 E.0974
G1 X30.59 Y44.836 E.02467
G1 X31.752 Y45.997 E.06254
G1 X31.104 Y45.997 E.02467
G1 X30.384 Y45.277 E.03877
M204 P2500
M106 S127.5
;LAYER_CHANGE
;Z:0.3
;HEIGHT:0.1
;BEFORE_LAYER_CHANGE
G92 E0.0
;LAYER_Z: 0.3
;LAYER_Num: 1


G1 E-.64 F2100
;WIPE_START
G1 F19200
G1 X31.104 Y45.997 E-.1058
G1 X31.626 Y45.997 E-.0542
;WIPE_END
G1 X31.626 Y45.997 Z.2 F24000
G1 X55.58 Y38.832 Z.636
;AFTER_LAYER_CHANGE
;0.3
M104 S225 T0 ; set temperature
G1 X55.58 Y38.832
G1 Z.3 F720
G1 E.8 F1500
M204 P2000
;TYPE:Perimeter
;WIDTH:0.449999
G1 F4097
G1 X55.58 Y46.668 E.13961
G1 X29.92 Y46.668 E.45717
G1 X29.92 Y38.832 E.13961
G1 X55.52 Y38.832 E.4561
M204 P2500
G1 X55.52 Y38.832 F24000
G1 X56.009 Y38.404
M204 P2000
G1 F4097
G1 X56.009 Y47.096 E.15486
G1 X29.491 Y47.096 E.47246
G1 X29.491 Y38.404 E.15486
G1 X55.949 Y38.404 E.47139
M204 P2500
G1 X55.949 Y38.404 F24000
G1 X56.438 Y37.975
M204 P2000
;TYPE:External perimeter
G1 F4097
G1 X56.438 Y38.65 E.01203
G1 X56.438 Y46.85 E.1461
G1 X56.438 Y47.525 E.01203
G1 X55.763 Y47.525 E.01203
G1 X29.738 Y47.525 E.46368
G1 X29.063 Y47.525 E.01203
G1 X29.063 Y46.85 E.01203
G1 X29.063 Y38.65 E.1461
G1 X29.063 Y37.975 E.01203
G1 X29.738 Y37.975 E.01203
G1 X55.763 Y37.975 E.46368
G1 X56.378 Y37.975 E.01096
M204 P2500
G1 E-.64 F2100
;WIPE_START
G1 F19200
G1 X56.438 Y37.975 E-.00623
G1 X56.438 Y38.65 E-.07014
G1 X56.438 Y39.455 E-.08363
;WIPE_END
G1 X30.4 Y39.231 Z.755 F24000
G1 Z.3 F720
G1 E.8 F1500
;TYPE:Solid infill
;WIDTH:0.553972
G1 F4097
G2 X30.383 Y39.295 I-.061 J.018 E.00734
;WIDTH:0.449999
G1 X30.284 Y39.98 E.01233
G1 X31.067 Y39.196 E.01974
G1 X31.673 Y39.196 E.0108
G1 X30.284 Y40.586 E.03501
G1 X30.284 Y41.192 E.0108
G1 X32.279 Y39.196 E.05028
G1 X32.886 Y39.196 E.01081
G1 X30.284 Y41.798 E.06556
G1 X30.284 Y42.404 E.0108
G1 X33.492 Y39.196 E.08083
G1 X34.098 Y39.196 E.0108
G1 X30.284 Y43.01 E.0961
G1 X30.284 Y43.616 E.0108
G1 X34.704 Y39.196 E.11137
G1 X35.31 Y39.196 E.0108
G1 X30.284 Y44.222 E.12664
G1 X30.284 Y44.828 E.0108
G1 X35.916 Y39.196 E.14191
G1 X36.522 Y39.196 E.0108
G1 X30.284 Y45.434 E.15718
G1 X30.284 Y45.434 F24000
G1 X30.223 Y46.424
;WIDTH:0.36146
G1 F4097
G1 X30.182 Y46.435 E.0006
G1 X30.163 Y46.364 E.00104
G1 X30.234 Y46.383 E.00104
;WIDTH:0.40573
G1 X30.259 Y46.212 E.00276
;WIDTH:0.449999
G1 X30.284 Y46.04 E.0031
G1 X37.128 Y39.196 E.17244
G1 X37.734 Y39.196 E.0108
G1 X30.627 Y46.304 E.17908
G1 X31.233 Y46.304 E.0108
G1 X38.34 Y39.196 E.17908
G1 X38.946 Y39.196 E.0108
G1 X31.839 Y46.304 E.17908
G1 X32.445 Y46.304 E.0108
G1 X39.552 Y39.196 E.17908
G1 X40.158 Y39.196 E.0108
G1 X33.051 Y46.304 E.17908
G1 X33.657 Y46.304 E.0108
M73 Q1 S90
G1 X40.764 Y39.196 E.17908
G1 X41.37 Y39.196 E.0108
G1 X34.263 Y46.304 E.17908
G1 X34.869 Y46.304 E.0108
G1 X41.976 Y39.196 E.17908
G1 X42.582 Y39.196 E.0108
G1 X35.475 Y46.304 E.17908
G1 X36.081 Y46.304 E.0108
G1 X43.188 Y39.196 E.17908
G1 X43.794 Y39.196 E.0108
G1 X36.687 Y46.304 E.17908
G1 X37.293 Y46.304 E.0108
G1 X44.4 Y39.196 E.17908
G1 X45.006 Y39.196 E.0108
G1 X37.899 Y46.304 E.17908
G1 X38.505 Y46.304 E.0108
M73 P1 R89
G1 X45.612 Y39.196 E.17908
G1 X46.219 Y39.196 E.01081
G1 X39.111 Y46.304 E.1791
G1 X39.717 Y46.304 E.0108
G1 X46.825 Y39.196 E.1791
G1 X47.431 Y39.196 E.0108
G1 X40.323 Y46.304 E.1791
G1 X40.929 Y46.304 E.0108
G1 X48.037 Y39.196 E.1791
G1 X48.643 Y39.196 E.0108
G1 X41.535 Y46.304 E.1791
G1 X42.141 Y46.304 E.0108
G1 X49.249 Y39.196 E.1791
G1 X49.855 Y39.196 E.0108
G1 X42.747 Y46.304 E.1791
G1 X43.354 Y46.304 E.01081
G1 X50.461 Y39.196 E.17908
G1 X51.067 Y39.196 E.0108
G1 X43.96 Y46.304 E.17908
G1 X44.566 Y46.304 E.0108
G1 X51.673 Y39.196 E.17908
G1 X52.279 Y39.196 E.0108
G1 X45.172 Y46.304 E.17908
G1 X45.778 Y46.304 E.0108
G1 X52.885 Y39.196 E.17908
G1 X53.491 Y39.196 E.0108
G1 X46.384 Y46.304 E.17908
G1 X46.99 Y46.304 E.0108
G1 X54.097 Y39.196 E.17908
G1 X54.703 Y39.196 E.0108
G1 X47.596 Y46.304 E.17908
G1 X48.202 Y46.304 E.0108
G1 X55.216 Y39.289 E.17674
G1 X55.3 Y39.189 E.00233
;WIDTH:0.40573
G1 X55.384 Y39.088 E.0021
;WIDTH:0.36146
G1 X55.343 Y39.099 E.0006
G1 X55.324 Y39.028 E.00104
G1 X55.395 Y39.047 E.00104
G1 X55.395 Y39.047 F24000
G1 X55.216 Y39.895
;WIDTH:0.449999
G1 F4097
G1 X48.808 Y46.304 E.16147
G1 X49.414 Y46.304 E.0108
G1 X55.216 Y40.501 E.1462
G1 X55.216 Y41.108 E.01081
G1 X50.02 Y46.304 E.13092
G1 X50.626 Y46.304 E.0108
G1 X55.216 Y41.714 E.11565
G1 X55.216 Y42.32 E.0108
G1 X51.232 Y46.304 E.10038
G1 X51.838 Y46.304 E.0108
G1 X55.216 Y42.926 E.08511
G1 X55.216 Y43.532 E.0108
G1 X52.444 Y46.304 E.06984
G1 X52.927 Y46.476 E.00913
;WIDTH:0.36146
G1 X52.856 Y46.457 E.00104
G1 X52.875 Y46.528 E.00104
G1 X52.916 Y46.517 E.0006
;WIDTH:0.40573
G1 X52.983 Y46.41 E.00202
;WIDTH:0.449999
G1 X53.05 Y46.304 E.00223
G1 X55.216 Y44.138 E.05458
G1 X55.323 Y44.071 E.00225
;WIDTH:0.40573
G1 X55.429 Y44.003 E.00201
;WIDTH:0.36146
G1 X55.388 Y44.014 E.0006
G1 X55.369 Y43.943 E.00104
G1 X55.44 Y43.962 E.00104
;WIDTH:0.449999
G1 X55.216 Y44.744 E.01449
G1 X55.216 Y46.304 E.02779
G1 X53.656 Y46.304 E.02779
G1 X55.065 Y44.895 E.0355
G1 X55.065 Y44.895 F24000
G1 X54.818 Y45.831
;WIDTH:0.50666
G1 F4097
G2 X54.802 Y45.89 I-.056 J.017 E.00607
M106 S255
;LAYER_CHANGE
;Z:0.4
;HEIGHT:0.1
;BEFORE_LAYER_CHANGE
G92 E0.0
;LAYER_Z: 0.4
;LAYER_Num: 2


G1 E-.64 F2100
;WIPE_START
G1 F19200
G3 X54.818 Y45.831 I-.04 J-.042 E-.03128
;WIPE_END
G1 E-.12872 F2100
G1 X54.818 Y45.831 Z.3 F24000
G1 X55.58 Y38.832 Z.423
;AFTER_LAYER_CHANGE
;0.4
G1 X55.58 Y38.832
G1 Z.4 F720
G1 E.8 F1500
M204 P2000
;TYPE:Perimeter
;WIDTH:0.449999
G1 F4098
G1 X55.58 Y46.668 E.13961
G1 X29.92 Y46.668 E.45717
G1 X29.92 Y38.832 E.13961
G1 X55.52 Y38.832 E.4561
M204 P2500
G1 X55.52 Y38.832 F24000
G1 X56.009 Y38.404
M204 P2000
G1 F4098
G1 X56.009 Y47.096 E.15486
G1 X29.491 Y47.096 E.47246
G1 X29.491 Y38.404 E.15486
G1 X55.949 Y38.404 E.47139
M204 P2500
G1 X55.949 Y38.404 F24000
G1 X56.438 Y37.975
M204 P2000
;TYPE:External perimeter
G1 F4098
G1 X56.438 Y46.85 E.15812
G1 X56.438 Y47.525 E.01203
G1 X29.737 Y47.525 E.47572
G1 X29.063 Y47.525 E.01201
G1 X29.063 Y37.975 E.17015
G1 X55.763 Y37.975 E.4757
G1 X56.378 Y37.975 E.01096
M204 P2500
G1 E-.64 F2100
;WIPE_START
G1 F19200
G1 X56.438 Y37.975 E-.00623
G1 X56.438 Y39.455 E-.15377
;WIPE_END
G1 X30.319 Y46.187 Z.871 F24000
G1 Z.4 F720
G1 E.8 F1500
;TYPE:Solid infill
;WIDTH:0.553972
G1 F4098
G2 X30.383 Y46.205 I.018 J.062 E.00733
;WIDTH:0.449999
G1 X30.284 Y45.52 E.01233
G1 X31.144 Y46.375 E.02161
;WIDTH:0.40573
G1 X31.221 Y46.446 E.00167
;WIDTH:0.36146
G1 X31.202 Y46.517 E.00104
G1 X31.273 Y46.498 E.00104
G1 X31.262 Y46.457 E.0006
;WIDTH:0.449999
G1 X31.673 Y46.304 E.00781
G1 X30.284 Y44.914 E.03501
G1 X30.284 Y44.308 E.0108
G1 X32.279 Y46.304 E.05028
G1 X32.886 Y46.304 E.01081
G1 X30.284 Y43.702 E.06556
G1 X30.284 Y43.096 E.0108
G1 X33.492 Y46.304 E.08083
G1 X34.098 Y46.304 E.0108
G1 X30.284 Y42.49 E.0961
G1 X30.284 Y41.884 E.0108
G1 X34.704 Y46.304 E.11137
G1 X35.31 Y46.304 E.0108
G1 X30.284 Y41.278 E.12664
G1 X30.284 Y40.672 E.0108
G1 X35.916 Y46.304 E.14191
G1 X36.522 Y46.304 E.0108
G1 X30.284 Y40.066 E.15718
G1 X30.284 Y39.46 E.0108
G1 X37.128 Y46.304 E.17244
G1 X37.734 Y46.304 E.0108
G1 X30.627 Y39.196 E.17908
G1 X31.233 Y39.196 E.0108
G1 X38.34 Y46.304 E.17908
G1 X38.946 Y46.304 E.0108
G1 X31.839 Y39.196 E.17908
G1 X32.445 Y39.196 E.0108
G1 X39.552 Y46.304 E.17908
G1 X40.158 Y46.304 E.0108
G1 X33.051 Y39.196 E.17908
G1 X33.657 Y39.196 E.0108
G1 X40.764 Y46.304 E.17908
G1 X41.37 Y46.304 E.0108
G1 X34.263 Y39.196 E.17908
G1 X34.869 Y39.196 E.0108
G1 X41.976 Y46.304 E.17908
G1 X42.582 Y46.304 E.0108
G1 X35.475 Y39.196 E.17908
G1 X36.081 Y39.196 E.0108
G1 X43.188 Y46.304 E.17908
G1 X43.794 Y46.304 E.0108
G1 X36.687 Y39.196 E.17908
G1 X37.293 Y39.196 E.0108
G1 X44.4 Y46.304 E.17908
G1 X45.006 Y46.304 E.0108
G1 X37.899 Y39.196 E.17908
G1 X38.505 Y39.196 E.0108
G1 X45.612 Y46.304 E.17908
G1 X46.219 Y46.304 E.01081
G1 X39.111 Y39.196 E.1791
G1 X39.717 Y39.196 E.0108
G1 X46.825 Y46.304 E.1791
G1 X47.431 Y46.304 E.0108
G1 X40.323 Y39.196 E.1791
G1 X40.929 Y39.196 E.0108
G1 X48.037 Y46.304 E.1791
G1 X48.643 Y46.304 E.0108
G1 X41.535 Y39.196 E.1791
G1 X42.141 Y39.196 E.0108
G1 X49.249 Y46.304 E.1791
G1 X49.855 Y46.304 E.0108
G1 X42.747 Y39.196 E.1791
G1 X43.354 Y39.196 E.01081
G1 X50.461 Y46.304 E.17908
G1 X51.067 Y46.304 E.0108
G1 X43.96 Y39.196 E.17908
G1 X44.566 Y39.196 E.0108
G1 X51.673 Y46.304 E.17908
G1 X52.279 Y46.304 E.0108
M73 P1 R88
G1 X45.172 Y39.196 E.17908
G1 X45.778 Y39.196 E.0108
G1 X52.885 Y46.304 E.17908
G1 X53.491 Y46.304 E.0108
G1 X46.384 Y39.196 E.17908
G1 X46.99 Y39.196 E.0108
G1 X54.097 Y46.304 E.17908
G1 X54.703 Y46.304 E.0108
G1 X47.596 Y39.196 E.17908
G1 X48.202 Y39.196 E.0108
G1 X55.216 Y46.211 E.17674
G1 X55.28 Y46.306 E.00204
;WIDTH:0.40573
G1 X55.343 Y46.401 E.00182
;WIDTH:0.36146
